X: 1
T: On the Wings of a Skorie #1
C: Michel Ferrie 1995
O: Shetland
S: via F.Slimmer, Sierra
N: A skorie is a herring gull in the Shetlands
D: Fiddler's Bid "Da Farder Ben Da Welcomer"
D: Alasdair Fraser and Natalie Haas "Abundance"
R: reel
Z: 2018 John Chambers <jc:trillian.mit.edu> from transcripption by Barbara McOwen 1/18
M: C|
L: 1/8
K: Em
"A"|: GA |\
"Em"BE E/E/E BEcE | BE E/E/E GFGB |\
"D"ABGB AGFA | "Em"GEED "D"EFGA |\
"Em"BE E/E/E BEcE |
BE E/E/E GFGB |\
"D"ABGB AGFA | "Em"GEED E2 "B":: GF |\
"Em"EB B/B/B "D"BAFA | "G"GEDE "Bm"GABd |
Beed efge | "D"fedf "Em"e2gf |\
"Em"eB B/B/B "D7"BAFA | "G"GEDE GABd |\
"Bm"f/g/a df "Am"efdB | "Bm"ABdf "Em"e2 :|
%%text arr. BMcO 1/18, from Concord Slow Scottish collection

%%sep 1 1 500

